ummisco.gama.ui.shared/svg/markers/marker.info.svg

<svg xmlns="http://www.w3.org/2000/svg" width="13" height="13" viewBox="-832.5 -3690.5 13 13"><g fill="none"><circle cx="-826" cy="-3684" r="6" fill="#fff"/><path fill="#5c76a2" d="M-826-3690c-3.312 0-6 2.688-6 6s2.688 6 6 6 6-2.688 6-6-2.688-6-6-6Zm.6 9h-1.2v-3.6h1.2v3.6Zm0-4.8h-1.2v-1.2h1.2v1.2Z"/></g></svg>

<?xml version="1.0" encoding="UTF-8" standalone="no"?>
<!DOCTYPE svg PUBLIC "-//W3C//DTD SVG 1.1//EN" "http://www.w3.org/Graphics/SVG/1.1/DTD/svg11.dtd">
<svg xmlns:xl="http://www.w3.org/1999/xlink" xmlns:dc="http://purl.org/dc/elements/1.1/" version="1.1" xmlns="http://www.w3.org/2000/svg" viewBox="-832 -3690 12 12" width="12" height="12">
  <defs/>
  <g id="ICONES" stroke="none" fill="none" stroke-opacity="1" stroke-dasharray="none" fill-opacity="1">
    <title>ICONES</title>
    <g id="ICONES_Calque_1">
      <title>Calque 1</title>
      <g id="Group_2095">
        <title>markers/marker.info</title>
        <g id="Graphic_2097">
          <circle cx="-826" cy="-3684" r="6.00000958741114" fill="white"/>
        </g>
        <g id="Graphic_2096">
          <path d="M -826 -3690 C -829.312 -3690 -832 -3687.312 -832 -3684 C -832 -3680.688 -829.312 -3678 -826 -3678 C -822.688 -3678 -820 -3680.688 -820 -3684 C -820 -3687.312 -822.688 -3690 -826 -3690 Z M -825.4 -3681 L -826.6 -3681 L -826.6 -3684.6 L -825.4 -3684.6 L -825.4 -3681 Z M -825.4 -3685.8 L -826.6 -3685.8 L -826.6 -3687 L -825.4 -3687 L -825.4 -3685.8 Z" fill="#5c76a2"/>
        </g>
      </g>
    </g>
  </g>
</svg>
